64x64/apps/org.gnome.Photos.svg

<svg xmlns="http://www.w3.org/2000/svg" width="64" height="64" version="1.1">
 <path style="opacity:0.2" d="M 32.500002,4 C 30.812256,4 29.245251,4.5051568 27.923433,5.3665528 L 11.618023,14.915722 C 10.224701,15.646371 9.0115144,16.769888 8.1690149,18.25 7.3956974,19.609004 7.0372054,21.091795 7.0386909,22.555615 h -0.038691 v 19.88877 h 0.038691 c -0.00132,1.463638 0.3569872,2.94701 1.130324,4.305615 0.8423299,1.480283 2.0557221,2.603637 3.4490081,3.334278 l 16.393846,9.60205 C 29.315272,60.513013 30.849523,61 32.500002,61 c 1.706528,0 3.292685,-0.515222 4.62355,-1.394385 l 16.172756,-9.474023 c 1.42986,-0.728795 2.67472,-1.870808 3.53468,-3.381592 0.773671,-1.359624 1.132147,-2.843911 1.130324,-4.308399 h 0.03869 V 22.555615 h -0.03869 C 57.962761,21.091779 57.604461,19.608846 56.830988,18.25 55.988657,16.769717 54.775265,15.646363 53.381978,14.915722 L 37.123552,5.3916016 C 35.792932,4.5129813 34.206016,4 32.500002,4 Z"/>
 <path style="fill:#33d17a" d="m 7,21.555615 v 19.88877 h 17.040533 v -19.88877 z"/>
 <path style="fill:#3584e4" d="m 19.80389,34.027149 -8.567247,14.834472 16.979733,9.944384 8.567249,-14.834472 z"/>
 <path style="fill:#a347ba" d="m 45.196109,34.024365 -16.979733,9.947168 8.567249,14.834472 16.979734,-9.947167 z"/>
 <path style="fill:#e83c44" d="M 40.959469,21.555615 V 41.441601 H 58.000001 V 21.555615 Z"/>
 <path style="fill:#ff912f" d="m 36.783625,4.1939941 -8.567249,14.8344729 16.979733,9.944384 8.56725,-14.834472 z"/>
 <path style="fill:#f6d32d" d="M 28.216376,4.1939941 11.236643,14.138379 19.80389,28.972851 36.783625,19.028467 Z"/>
 <path style="fill:#a347ba" d="m 32.500148,60 c 4.688552,0 8.489481,-3.856201 8.489481,-8.611862 -0.0041,-2.819374 -1.368325,-5.458182 -3.652363,-7.064597 l -4.366423,-2.603653 -0.470695,-0.27558 c -1.35078,-0.774973 -2.692527,-1.566043 -4.024957,-2.373046 -2.746444,-1.500216 -4.460647,-4.407467 -4.464525,-7.571741 v 19.887661 c 0,4.75614 3.80093,8.61186 8.489482,8.61186 z m -8.458353,-9.306552 c 0.01133,-0.135404 0.03066,-0.268882 0.04811,-0.402844 -0.01886,0.133965 -0.03491,0.267925 -0.04811,0.402844 z"/>
 <path style="fill:#f6d32d" d="m 32.500148,3.0000003 c -4.688552,0 -8.489482,3.8557218 -8.489482,8.6118617 0.0042,2.819204 1.368464,5.4578 3.652364,7.064118 l 4.366423,2.603654 0.470695,0.275579 c 1.350782,0.774973 2.692527,1.566043 4.024958,2.373047 2.746295,1.500134 4.460473,4.40716 4.464523,7.571261 V 11.611862 c 0,-4.7561399 -3.800929,-8.6118617 -8.489481,-8.6118617 z m 8.458353,9.3055947 c -0.01133,0.135874 -0.03066,0.26936 -0.04811,0.403322 0.01886,-0.133964 0.03489,-0.267924 0.04811,-0.402843 z"/>
 <path style="fill:#3584e4" d="m 8.1692946,45.749761 c 2.3440404,4.11934 7.5367724,5.530251 11.5966304,3.151941 2.405028,-1.413283 3.975763,-3.931305 4.205124,-6.741174 l 0.03916,-5.136976 v -0.551637 c -0.01417,-1.523821 -0.0081,-3.28399 0.01417,-4.722171 -0.09258,-3.162478 1.531745,-6.121801 4.23059,-7.707617 L 24.010196,26.527606 15.520713,31.5 13.602092,32.623848 11.276916,33.985479 C 7.2161145,36.36331 5.8247827,41.630899 8.1692946,45.749761 Z M 11.884858,33.665883 c 0.121211,-0.05741 0.245251,-0.107174 0.367877,-0.159319 -0.123778,0.05033 -0.246434,0.103441 -0.367877,0.159319 z"/>
 <path style="fill:#ff912f" d="m 56.831003,17.249761 c -2.344042,-4.119341 -7.536774,-5.53025 -11.596632,-3.151941 -2.404898,1.413188 -3.975615,3.931001 -4.205123,6.740695 l -0.03916,5.137454 v 0.551637 c 0.01417,1.523821 0.0081,3.283991 -0.01417,4.722171 0.09258,3.16248 -1.531747,6.121802 -4.230592,7.707617 l 4.24474,-2.485958 8.489011,-4.971915 1.918621,-1.123847 2.325175,-1.361631 c 4.060803,-2.378309 5.452134,-7.64542 3.107622,-11.764282 z m -3.715564,12.083877 c -0.12121,0.05741 -0.24525,0.107174 -0.367877,0.159319 0.123576,-0.05023 0.246194,-0.103341 0.367877,-0.159319 z"/>
 <path style="fill:#33d17a" d="m 8.1692946,17.249761 c -2.3440402,4.119341 -0.9527085,9.385973 3.1071504,11.763804 2.408982,1.406227 5.343969,1.527213 7.857487,0.323901 l 4.405098,-2.53428 0.470693,-0.27558 c 1.337081,-0.799083 2.683386,-1.582179 4.038635,-2.349123 2.653912,-1.662903 5.993055,-1.715443 8.69653,-0.136829 l -4.24474,-2.486437 -8.489952,-4.971915 -1.918624,-1.123847 -2.325175,-1.361631 C 15.705595,11.719511 10.513335,13.130899 8.168823,17.249761 Z M 20.343211,14.472436 c 0.109891,0.07751 0.214124,0.161233 0.31977,0.243524 -0.104677,-0.08388 -0.211306,-0.165228 -0.31977,-0.244003 z"/>
 <path style="fill:#e83c44" d="m 56.831003,45.749761 c 2.34404,-4.119341 0.952709,-9.385972 -3.107152,-11.764282 -2.409059,-1.406074 -5.344044,-1.526882 -7.857487,-0.323423 l -4.405097,2.534279 -0.470694,0.27558 c -1.337081,0.799084 -2.683386,1.58218 -4.038635,2.349125 -2.653825,1.663051 -5.992969,1.715773 -8.69653,0.137313 l 4.24474,2.485958 8.489953,4.972394 1.918623,1.123847 2.325175,1.361632 c 4.060801,2.377831 9.253062,0.96692 11.597575,-3.151942 z m -12.173918,2.777325 c -0.109891,-0.07751 -0.214122,-0.161233 -0.319769,-0.243524 0.104706,0.08373 0.211293,0.16506 0.319769,0.244002 z"/>
 <path style="fill:#3e384f" d="m 24.010519,26.528085 v 9.94383 l 8.489482,4.972393 8.489481,-4.972393 v -9.94383 l -8.489481,-4.972393 z"/>
 <path style="opacity:0.2;fill:#f4f4f7" d="M 32.5 3 C 30.812254 3 29.245646 3.5057915 27.923828 4.3671875 L 11.617188 13.916016 C 10.223865 14.646665 9.0124214 15.769888 8.1699219 17.25 C 7.3966044 18.609004 7.037577 20.090868 7.0390625 21.554688 L 7 21.554688 L 7 22.554688 L 7.0390625 22.554688 C 7.037577 21.090868 7.3966044 19.609004 8.1699219 18.25 C 9.0124214 16.769888 10.223865 15.646665 11.617188 14.916016 L 27.923828 5.3671875 C 29.245646 4.5057915 30.812254 4 32.5 4 C 34.206014 4 35.792427 4.5139578 37.123047 5.3925781 L 53.382812 14.916016 C 54.7761 15.646657 55.987747 16.769717 56.830078 18.25 C 57.603551 19.608846 57.962386 21.090851 57.960938 22.554688 L 58 22.554688 L 58 21.554688 L 57.960938 21.554688 C 57.962386 20.090851 57.603551 18.608846 56.830078 17.25 C 55.987747 15.769717 54.7761 14.646657 53.382812 13.916016 L 37.123047 4.3925781 C 35.792427 3.5139578 34.206014 3 32.5 3 z"/>
</svg>

<svg xmlns="http://www.w3.org/2000/svg" width="64" height="64"><path style="opacity:.2" d="M32.5 4a8.348 8.348 0 0 0-4.577 1.367l-16.305 9.549a8.493 8.493 0 0 0-3.449 3.334 8.655 8.655 0 0 0-1.13 4.306H7v19.888h.039a8.656 8.656 0 0 0 1.13 4.306 8.49 8.49 0 0 0 3.449 3.334l16.394 9.602a8.347 8.347 0 0 0 9.112-.08l16.172-9.474a8.494 8.494 0 0 0 3.535-3.382 8.658 8.658 0 0 0 1.13-4.308H58V22.556h-.039a8.653 8.653 0 0 0-1.13-4.306 8.49 8.49 0 0 0-3.449-3.334L37.124 5.392A8.36 8.36 0 0 0 32.5 4z"/><path style="fill:#33d17a" d="M7 21.556v19.888h17.04V21.556z"/><path style="fill:#3584e4" d="m19.804 34.027-8.567 14.835 16.98 9.944 8.567-14.834z"/><path style="fill:#a347ba" d="m45.196 34.024-16.98 9.948 8.568 14.834 16.98-9.947z"/><path style="fill:#e83c44" d="M40.96 21.556v19.886H58V21.556z"/><path style="fill:#ff912f" d="m36.784 4.194-8.568 14.834 16.98 9.945 8.567-14.835z"/><path style="fill:#f6d32d" d="m28.216 4.194-16.98 9.944 8.568 14.835 16.98-9.945z"/><path style="fill:#a347ba" d="M32.5 60c4.689 0 8.49-3.856 8.49-8.612a8.648 8.648 0 0 0-3.653-7.064l-4.366-2.604-.47-.276a197.162 197.162 0 0 1-4.026-2.373c-2.746-1.5-4.46-4.407-4.464-7.571v19.887c0 4.756 3.8 8.612 8.49 8.612zm-8.458-9.307c.011-.135.03-.268.048-.402a9.571 9.571 0 0 0-.048.402z"/><path style="fill:#f6d32d" d="M32.5 3c-4.688 0-8.49 3.856-8.49 8.612a8.648 8.648 0 0 0 3.653 7.064l4.366 2.604.471.275c1.35.775 2.693 1.566 4.025 2.373 2.746 1.5 4.46 4.407 4.465 7.572V11.612C40.99 6.856 37.189 3 32.5 3zm8.459 9.306c-.012.135-.031.269-.049.403.02-.134.035-.268.049-.403z"/><path style="fill:#3584e4" d="M8.17 45.75c2.343 4.12 7.536 5.53 11.596 3.152a8.624 8.624 0 0 0 4.205-6.741l.04-5.137v-.552c-.015-1.524-.009-3.284.013-4.722-.092-3.163 1.532-6.122 4.231-7.708l-4.245 2.486-8.49 4.972-1.918 1.124-2.325 1.361c-4.06 2.378-5.452 7.646-3.108 11.765zm3.715-12.084c.121-.058.245-.107.368-.16-.124.05-.247.104-.368.16z"/><path style="fill:#ff912f" d="M56.831 17.25c-2.344-4.12-7.537-5.53-11.597-3.152a8.624 8.624 0 0 0-4.205 6.74l-.039 5.138v.552c.014 1.523.008 3.284-.014 4.722.092 3.162-1.532 6.122-4.23 7.707l4.244-2.486 8.49-4.971 1.918-1.124 2.325-1.362c4.06-2.378 5.452-7.645 3.107-11.764zm-3.716 12.084c-.12.057-.245.107-.367.159a8.89 8.89 0 0 0 .367-.16z"/><path style="fill:#33d17a" d="M8.17 17.25c-2.345 4.12-.953 9.386 3.106 11.764a8.383 8.383 0 0 0 7.858.323l4.405-2.534.47-.275c1.338-.8 2.684-1.583 4.04-2.35a8.386 8.386 0 0 1 8.696-.136L32.5 21.555l-8.49-4.972-1.918-1.124-2.326-1.361c-4.06-2.378-9.253-.967-11.597 3.152zm12.173-2.778c.11.078.214.162.32.244a8.487 8.487 0 0 0-.32-.244z"/><path style="fill:#e83c44" d="M56.831 45.75c2.344-4.12.953-9.386-3.107-11.765a8.383 8.383 0 0 0-7.858-.323l-4.405 2.534-.47.276c-1.338.799-2.684 1.582-4.04 2.349a8.386 8.386 0 0 1-8.696.137l4.245 2.486 8.49 4.973 1.919 1.124 2.325 1.361c4.06 2.378 9.253.967 11.597-3.152zm-12.174 2.777c-.11-.077-.214-.161-.32-.243.105.083.212.165.32.244z"/><path style="fill:#3e384f" d="M24.01 26.528v9.944l8.49 4.972 8.49-4.972v-9.944l-8.49-4.972z"/><path style="opacity:.2;fill:#f4f4f7" d="M32.5 3a8.347 8.347 0 0 0-4.576 1.367l-16.307 9.549A8.488 8.488 0 0 0 8.17 17.25a8.652 8.652 0 0 0-1.13 4.305H7v1h.04a8.652 8.652 0 0 1 1.13-4.305 8.488 8.488 0 0 1 3.447-3.334l16.307-9.549a8.36 8.36 0 0 1 9.2.025l16.259 9.524a8.486 8.486 0 0 1 3.447 3.334 8.65 8.65 0 0 1 1.13 4.305H58v-1h-.04a8.65 8.65 0 0 0-1.13-4.305 8.486 8.486 0 0 0-3.447-3.334l-16.26-9.523A8.36 8.36 0 0 0 32.5 3z"/></svg>
